X:588
T: ACH WIE ISTS MOEGLICH DANN
N: E0548A
O: Europa, Mitteleuropa, Deutschland
R: Liebes - Lied
M: 2/4
L: 1/16
K: Bb
 | d4B2G2 | G3FF4 |
c4B2c2 | d2B2F4 |
d4B2F2 | G2e2d4 |
c4d2c2 | F4z4 |
c4d2c2 | B2G2F4 |
d4e2d2 | d2c2c4 |
F4G2F2 | f2e2c4 |
B4c2A2 | B4z4

@@@ Tune index: 4238
